assets/serverless/mono.svg

<svg viewBox="0 0 24 24" xmlns="http://www.w3.org/2000/svg"><path d="m0 17.57h4.248l-1.316 3.974h-2.932zm0-7.557h6.75l-1.316 3.974h-5.434zm0-7.557h9.252l-1.316 3.975h-7.936zm13.44 0h10.56v3.975h-11.877zm-3.82 11.531 1.317-3.974h13.063v3.974zm-1.184 3.583h15.564v3.975h-16.881z"/></svg>

<svg xmlns="http://www.w3.org/2000/svg" viewBox="0 0 24 24"><path d="M0 17.57h4.248l-1.316 3.974H0zm0-7.557h6.75l-1.316 3.974H0zm0-7.557h9.252L7.936 6.431H0zm13.44 0H24v3.975H12.123zM9.62 13.987l1.317-3.974H24v3.974zM8.436 17.57H24v3.975H7.119z"/></svg>
